www/assets/icons/domain_verification.svg

<svg xmlns="http://www.w3.org/2000/svg" width="24" height="24" viewBox="0 0 24 24" fill='currentColor'><path d="m16.6 10.88-1.42-1.42-4.24 4.25-2.12-2.13L7.4 13l3.54 3.54z"/><path d="M19 4H5a2 2 0 0 0-2 2v12a2 2 0 0 0 2 2h14c1.1 0 2-.9 2-2V6a2 2 0 0 0-2-2m0 14H5V8h14z"/></svg>

<svg width="24" height="24" viewBox="0 0 24 24" xmlns="http://www.w3.org/2000/svg" fill='currentColor'><path d="M16.6 10.88L15.18 9.46L10.94 13.71L8.82 11.58L7.4 13L10.94 16.54L16.6 10.88Z"/><path d="M19 4H5C3.89 4 3 4.9 3 6V18C3 19.1 3.89 20 5 20H19C20.1 20 21 19.1 21 18V6C21 4.9 20.11 4 19 4ZM19 18H5V8H19V18Z"/></svg>
